X:1
T:Andorra, 85.85 D
T:Andorra, 85.85 D
T:William Evander Penn, 1887
T:Public Domain Courtesy of the Cyber Hymnal™
C:William Evander Penn, 1887
Z:Public Domain
Z:Courtesy of the Cyber Hymnal™
%%score ( 1 2 ) ( 3 4 )
L:1/8
Q:1/4=90
M:3/4
K:G
V:1 treble 
V:2 treble 
V:3 bass 
V:4 bass 
V:1
 (3([B,D]E)[EG] | [DB]2 [DB]2 (3([DA]B)[CA] | [B,G]2 [B,D]2 [DG][B,^G] | [DA]4 [D^A]2 | %4
 [DB]4 (3([B,D]E)[EG] | [DB]2 [DB]2 (3([DA]B)[CA] | [B,G]2 [B,D]2 [DG][EA] | [DB]4 [CA]2 | %8
 [B,G]4 (3(GA)[GB] | [Gd]2 [Gd]2 (3([Ge]d)[GB] | [GB]2 [FA]2 [GB][Fc] | d4 [GB]2 | [FA]4 [GB][FA] | %13
 [EG]2 [EG]2 [FA][EG] | [CE]2 [EG]2 [EG][EA] | [DB]4 [CA]2 | [B,G]4 |] %17
V:2
 x2 | x6 | x6 | x6 | x6 | x6 | x6 | x6 | x4 G x | x6 | x6 | (G2 F2) x2 | x6 | x6 | x6 | x6 | x4 |] %17
V:3
 G,G, | G,2 G,2 [D,F,][D,F,] | [G,,G,]2 [G,,G,]2 [B,,G,][E,G,] | [D,F,]4 [D,F,]2 | G,4 G,G, | %5
 G,2 G,2 [D,F,][D,F,] | [G,,G,]2 [G,,G,]2 [B,,G,][C,G,] | [D,G,]4 [D,F,]2 | %8
 [G,,G,]4 (3([G,B,]C)[G,D] | [G,B,]2 [G,B,]2 (3([G,C]B,)[G,D] | [D,D]2 [D,D]2 [G,D][G,E] | %11
 D4 [G,D]2 | [D,D]4 [G,D][D,C] | [E,B,]2 [E,B,]2 [B,,B,][B,,B,] | [C,G,]2 [C,C]2 [C,G,][C,G,] | %15
 [D,G,]4 [D,F,]2 | [G,,G,]4 |] %17
V:4
 G,G, | G,2 G,2 x2 | x6 | x6 | G,4 G,G, | G,2 G,2 x2 | x6 | x6 | x6 | x6 | x6 | (B,2 A,2) x2 | x6 | %13
 x6 | x6 | x6 | x4 |] %17

